proprietary/assets/icons/gebouwen/laag-huis.svg

<svg enable-background="new 0 0 64 64" height="64" viewBox="0 0 64 64" width="64" xmlns="http://www.w3.org/2000/svg"><path d="m0 0h64v64h-64z" fill="none"/><path d="m18 57h6v-13h7v13h23v-19h-36zm18-13s2-2 6-2 6 2 6 2v8h-12z"/><path d="m16.1 18.4s1.5 4.5 2.6 10.3l5.1-3.6c-.5-1.6-1.5-5-3.1-8.8 0 0 4.3-1.9 7.6 3 .1.2.4.1.5-.1.3-2.1.8-8.8-3.8-11.1-5.2-2.6-7.3 2.4-7.3 2.4-4.9-9-15.2-4.4-14.7 6.5 0 .2.3.3.5.1 4.3-5.6 8.3-3.6 8.3-3.6-9.7 4.5-6.3 16.5-4.2 18.1.1.1.4 0 .4-.2.2-1.7 1.4-9.5 8.1-13z"/><path d="m36.1 19-24.1 17h48z"/></svg>

<?xml version="1.0" encoding="utf-8"?>
<!-- Generator: Adobe Illustrator 21.0.2, SVG Export Plug-In . SVG Version: 6.00 Build 0)  -->
<!DOCTYPE svg PUBLIC "-//W3C//DTD SVG 1.1//EN" "http://www.w3.org/Graphics/SVG/1.1/DTD/svg11.dtd">
<svg version="1.1" xmlns="http://www.w3.org/2000/svg" xmlns:xlink="http://www.w3.org/1999/xlink" x="0px" y="0px" width="64px"
	 height="64px" viewBox="0 0 64 64" style="enable-background:new 0 0 64 64;" xml:space="preserve">
<style type="text/css">
	.st0{fill:none;}
</style>
<g id="_x36_4px_Box">
	<rect class="st0" width="64" height="64"/>
</g>
<g id="Icon">
	<g>
		<path d="M18,57h6V44h7v13h23V38H18V57z M36,44c0,0,2-2,6-2s6,2,6,2v8H36V44z"/>
		<path d="M16.1,18.4c0,0,1.5,4.5,2.6,10.3l5.1-3.6c-0.5-1.6-1.5-5-3.1-8.8c0,0,4.3-1.9,7.6,3c0.1,0.2,0.4,0.1,0.5-0.1
			c0.3-2.1,0.8-8.8-3.8-11.1c-5.2-2.6-7.3,2.4-7.3,2.4C12.8,1.5,2.5,6.1,3,17c0,0.2,0.3,0.3,0.5,0.1c4.3-5.6,8.3-3.6,8.3-3.6
			C2.1,18,5.5,30,7.6,31.6c0.1,0.1,0.4,0,0.4-0.2C8.2,29.7,9.4,21.9,16.1,18.4z"/>
		<polygon points="36.1,19 12,36 60,36 		"/>
	</g>
</g>
</svg>
